public/assets/imgs/admin/admin-logo.svg

<svg fill="none" height="30" viewBox="0 0 391 30" width="391" xmlns="http://www.w3.org/2000/svg"><g fill="#fff"><path clip-rule="evenodd" d="m7.69784 0h-7.69784v30h7.91116l6.82224-6.9023 6.6417 6.9023h8.0494v-30h-7.8418l-6.8493 7.11815zm7.03556 7.11815 6.8493 7.11815h-13.88486z" fill-rule="evenodd"/><path d="m42.4658 28.3095v-26.10796h7.0492l6.168 11.09586 5.14-11.09586h7.0981v26.10796h-7.0981v-12.2381l-3.5585 5.8743h-1.5815-1.8979l-4.2701-5.8743-.049 12.2381z"/><path d="m70.8579 28.3096 7.5436-26.27115h7.3559l7.5436 26.27115h-6.4177l-1.3136-5.1417h-7.2058l-1.351 5.1417zm8.8196-10.1332h4.6162l-2.2893-8.96968z"/><path d="m94.0288 28.3096 7.8812-13.6985-7.2432-12.57265h6.9432l3.79 6.94309 3.829-6.94309h6.68l-7.281 12.61015 7.919 13.661h-6.981l-4.428-8.0315-4.429 8.0315z"/><path d="m133.173 27.9699v-26.27117h10.021c1.876 0 3.503.3753 4.879 1.12591 1.401.7506 2.477 1.77643 3.227 3.07747.776 1.30105 1.164 2.78975 1.164 4.46609 0 1.5763-.388 3.0024-1.164 4.2784-.75 1.2761-1.826 2.2894-3.227 3.04-1.376.7506-3.003 1.1259-4.879 1.1259h-3.565v9.1574zm6.456-14.3366h2.439c1.301 0 2.264-.3127 2.89-.9382.65-.6505.976-1.4387.976-2.3644 0-.95079-.326-1.73892-.976-2.36443-.626-.6255-1.589-.93825-2.89-.93825h-2.439z"/><path d="m156.502 27.9699v-26.27117h6.456v20.86677h11.859v5.4044z"/><path d="m187.675 28.3827c-1.951 0-3.653-.4003-5.104-1.201-1.451-.8006-2.577-1.9265-3.377-3.3777-.801-1.4512-1.201-3.1525-1.201-5.1041v-17.00117h6.455v17.00117c0 1.1759.288 2.1267.863 2.8523.575.7006 1.364 1.0508 2.364 1.0508 1.001 0 1.789-.3502 2.365-1.0508.575-.7256.863-1.6764.863-2.8523v-17.00117h6.455v17.00117c0 1.9516-.4 3.6529-1.201 5.1041-.8 1.4512-1.926 2.5771-3.378 3.3777-1.426.8007-3.127 1.201-5.104 1.201z"/><path d="m201.247 27.9699v-26.27117h9.945c1.802 0 3.403.35028 4.804 1.05085 1.401.70056 2.49 1.67634 3.265 2.92735.801 1.25101 1.201 2.70217 1.201 4.35347 0 1.6764-.413 3.1526-1.238 4.4286-.826 1.251-1.939 2.2143-3.341 2.8898l5.555 10.6211h-6.793l-4.729-9.6078h-2.214v9.6078zm6.455-14.7119h2.89c1 0 1.801-.2877 2.402-.8632.625-.5754.938-1.326.938-2.2518 0-.95074-.313-1.70134-.938-2.25179-.601-.57546-1.402-.86319-2.402-.86319h-2.89z"/><path d="m221.836 27.9699 7.544-26.27117h7.356l7.543 26.27117h-6.418l-1.313-5.1417h-7.206l-1.351 5.1417zm8.82-10.1332h4.616l-2.289-8.9697z"/><path d="m247.267 27.9699v-26.27117h6.455v20.86677h11.86v5.4044z"/><path d="m300.137 20.9239h-10.321l-2.318 6.4297h-3.351l9.408-24.6357h2.843l9.424 24.6357h-3.333zm-9.34-2.6733h8.376l-4.197-11.52264z"/><path d="m309.138 27.3536v-24.6357h6.955c2.143 0 4.038.47376 5.685 1.42129 1.647.94752 2.916 2.29549 3.807 4.0439.902 1.74841 1.359 3.75631 1.37 6.02361v1.5735c0 2.3237-.451 4.3598-1.353 6.1082-.891 1.7484-2.172 3.0907-3.841 4.027-1.658.9362-3.593 1.4156-5.804 1.4382zm3.249-21.96233v19.30583h3.418c2.504 0 4.45-.7783 5.837-2.335 1.399-1.5566 2.099-3.7731 2.099-6.6496v-1.4382c0-2.7974-.66-4.96884-1.98-6.51421-1.309-1.55665-3.17-2.34626-5.584-2.36882z"/><path d="m336.075 2.7179 8.054 20.1011 8.054-20.1011h4.213v24.6357h-3.248v-9.5937l.304-10.35513-8.088 19.94883h-2.487l-8.071-19.89807.322 10.30437v9.5937h-3.249v-24.6357z"/><path d="m365.618 27.3536h-3.249v-24.6357h3.249z"/><path d="m390.507 27.3536h-3.265l-12.403-18.98439v18.98439h-3.265v-24.6357h3.265l12.437 19.069v-19.069h3.231z"/></g></svg>

<svg width="391" height="30" viewBox="0 0 391 30" fill="none" xmlns="http://www.w3.org/2000/svg">
<path fill-rule="evenodd" clip-rule="evenodd" d="M7.69784 0H0V30H7.91116L14.7334 23.0977L21.3751 30H29.4245V0H21.5827L14.7334 7.11815L7.69784 0ZM14.7334 7.11815L21.5827 14.2363H7.69784L14.7334 7.11815Z" fill="white"/>
<path d="M42.4658 28.3095V2.20154H49.515L55.683 13.2974L60.823 2.20154H67.9211V28.3095H60.823V16.0714L57.2645 21.9457H55.683H53.7851L49.515 16.0714L49.466 28.3095H42.4658Z" fill="white"/>
<path d="M70.8579 28.3096L78.4015 2.03845H85.7574L93.301 28.3096H86.8833L85.5697 23.1679H78.3639L77.0129 28.3096H70.8579ZM79.6775 18.1764H84.2937L82.0044 9.20672L79.6775 18.1764Z" fill="white"/>
<path d="M94.0288 28.3096L101.91 14.6111L94.6668 2.03845H101.61L105.4 8.98154L109.229 2.03845H115.909L108.628 14.6486L116.547 28.3096H109.566L105.138 20.2781L100.709 28.3096H94.0288Z" fill="white"/>
<path d="M133.173 27.9699V1.69873H143.194C145.07 1.69873 146.697 2.07403 148.073 2.82464C149.474 3.57524 150.55 4.60107 151.3 5.90211C152.076 7.20316 152.464 8.69186 152.464 10.3682C152.464 11.9445 152.076 13.3706 151.3 14.6466C150.55 15.9227 149.474 16.936 148.073 17.6866C146.697 18.4372 145.07 18.8125 143.194 18.8125H139.629V27.9699H133.173ZM139.629 13.6333H142.068C143.369 13.6333 144.332 13.3206 144.958 12.6951C145.608 12.0446 145.934 11.2564 145.934 10.3307C145.934 9.37991 145.608 8.59178 144.958 7.96627C144.332 7.34077 143.369 7.02802 142.068 7.02802H139.629V13.6333Z" fill="white"/>
<path d="M156.502 27.9699V1.69873H162.958V22.5655H174.817V27.9699H156.502Z" fill="white"/>
<path d="M187.675 28.3827C185.724 28.3827 184.022 27.9824 182.571 27.1817C181.12 26.3811 179.994 25.2552 179.194 23.804C178.393 22.3528 177.993 20.6515 177.993 18.6999V1.69873H184.448V18.6999C184.448 19.8758 184.736 20.8266 185.311 21.5522C185.886 22.2528 186.675 22.603 187.675 22.603C188.676 22.603 189.464 22.2528 190.04 21.5522C190.615 20.8266 190.903 19.8758 190.903 18.6999V1.69873H197.358V18.6999C197.358 20.6515 196.958 22.3528 196.157 23.804C195.357 25.2552 194.231 26.3811 192.779 27.1817C191.353 27.9824 189.652 28.3827 187.675 28.3827Z" fill="white"/>
<path d="M201.247 27.9699V1.69873H211.192C212.994 1.69873 214.595 2.04901 215.996 2.74958C217.397 3.45014 218.486 4.42592 219.261 5.67693C220.062 6.92794 220.462 8.3791 220.462 10.0304C220.462 11.7068 220.049 13.183 219.224 14.459C218.398 15.71 217.285 16.6733 215.883 17.3488L221.438 27.9699H214.645L209.916 18.3621H207.702V27.9699H201.247ZM207.702 13.258H210.592C211.592 13.258 212.393 12.9703 212.994 12.3948C213.619 11.8194 213.932 11.0688 213.932 10.143C213.932 9.19226 213.619 8.44166 212.994 7.89121C212.393 7.31575 211.592 7.02802 210.592 7.02802H207.702V13.258Z" fill="white"/>
<path d="M221.836 27.9699L229.38 1.69873H236.736L244.279 27.9699H237.861L236.548 22.8282H229.342L227.991 27.9699H221.836ZM230.656 17.8367H235.272L232.983 8.867L230.656 17.8367Z" fill="white"/>
<path d="M247.267 27.9699V1.69873H253.722V22.5655H265.582V27.9699H247.267Z" fill="white"/>
<path d="M300.137 20.9239H289.816L287.498 27.3536H284.147L293.555 2.7179H296.398L305.822 27.3536H302.489L300.137 20.9239ZM290.797 18.2506H299.173L294.976 6.72796L290.797 18.2506Z" fill="white"/>
<path d="M309.138 27.3536V2.7179H316.093C318.236 2.7179 320.131 3.19166 321.778 4.13919C323.425 5.08671 324.694 6.43468 325.585 8.18309C326.487 9.9315 326.944 11.9394 326.955 14.2067V15.7802C326.955 18.1039 326.504 20.14 325.602 21.8884C324.711 23.6368 323.43 24.9791 321.761 25.9154C320.103 26.8516 318.168 27.331 315.957 27.3536H309.138ZM312.387 5.39127V24.6971H315.805C318.309 24.6971 320.255 23.9188 321.642 22.3621C323.041 20.8055 323.741 18.589 323.741 15.7125V14.2743C323.741 11.4769 323.081 9.30546 321.761 7.76009C320.452 6.20344 318.591 5.41383 316.177 5.39127H312.387Z" fill="white"/>
<path d="M336.075 2.7179L344.129 22.819L352.183 2.7179H356.396V27.3536H353.148V17.7599L353.452 7.40477L345.364 27.3536H342.877L334.806 7.45553L335.128 17.7599V27.3536H331.879V2.7179H336.075Z" fill="white"/>
<path d="M365.618 27.3536H362.369V2.7179H365.618V27.3536Z" fill="white"/>
<path d="M390.507 27.3536H387.242L374.839 8.36921V27.3536H371.574V2.7179H374.839L387.276 21.7869V2.7179H390.507V27.3536Z" fill="white"/>
</svg>
